X:1
T:Deeper, Deeper
T:Deeper, Deeper
T:Charles Price Jones
T:Charles Price Jones, 1900
T:Public Domain Courtesy of the Cyber Hymnal™
T:Public Domain Courtesy of the Cyber Hymnal™
C:Charles Price Jones
Z:Public Domain
Z:Courtesy of the Cyber Hymnal™
%%score ( 1 2 ) ( 3 4 )
L:1/8
Q:1/4=115
M:4/4
K:G
V:1 treble 
V:2 treble 
V:3 bass 
V:4 bass 
V:1
 D2 B,2 G2 D2 | [GB]>[GB] [GB]>[FA] [EG]2 [CE]2 | [B,D]2 [DG]2 [DF]2 [DG]2 | [FA]6 z2 | %4
w: 1.~Deep- er, deep- er|in the love of Je- sus|Dai- ly let me|go;|
w: 2.~Deep- er, deep- er,|bless- èd Ho- ly Spir- it,|Take me deep- er|still,|
w: 3.~Deep- er, deep- er!|though it cost hard tri- als,|Deep- er let me|go!|
w: 4.~Deep- er, high- er,|ev- ery day in Je- sus,|Till all con- flict|past,|
w: 5.~Deep- er, deep- er|in the faith of Je- sus,|Ho- ly faith and|true;|
 D2 B,2 G2 D2 | [GB]>[GB] [GB]>[FA] [EG]2 [CE]2 | [B,D]2 [DG]2 [DF]2 [DA]2 | [DG]6 || %8
w: High- er, high- er|in the school of wis- dom,|More of grace to|know.|
w: Till my life is|whol- ly lost in Je- sus,|And His per- fect|will.|
w: Roote- d in the|ho- ly love of Je- sus,|Let me fruit- ful|grow.|
w: Finds me con- queror,|and in His own im- age|Per- fect- ed at|last.|
w: In His power and|soul ex- ult- ing wis- dom|Let me peace pur-|sue.|
"^Refrain" D2 | B4- [GB]>A G>E | D4- [B,D]2 [DG]2 | A4- [FA]>A G>A | B4- [GB]2 [DG]2 | %13
w: |||||
w: |||||
w: O|deep- er yet, I pray,|And high- er|* eve- ry day, And|wis- er, bless-|
w: |||||
w: |||||
 B4- [GB]>A G>E | D4- [B,D]2 [DG][GB] | [FA]2 [FA]2 [DG]2 [DF]2 | [DG]6 z2 |] %17
w: ||||
w: ||||
w: * èd Lord, In Thy|pre- cious, ho- ly|* Word. * *||
w: ||||
w: ||||
V:2
 D2 B,2 G2 D2 | x8 | x8 | x8 | D2 B,2 G2 D2 | x8 | x8 | x6 || D2 | (G3/2 G/ G3/2 G/ A<)G E/ x3/2 | %10
 B,>B, B,>B, x4 | (F>FF>F A<)G A/ x3/2 | G>GG>G x4 | (G>GG>G A<)G E/ x3/2 | B,>B,B,>B, x4 | x8 | %16
 x8 |] %17
V:3
 D,2 B,,2 G,2 D,2 | [G,D]>[G,D] [G,D]>[G,D] [C,C]2 [C,G,]2 | [D,G,]2 [D,B,]2 [D,A,]2 [D,B,]2 | %3
 [D,D]6 z2 | D,2 B,,2 G,2 D,2 | [G,D]>[G,D] [G,D]>[G,C] [C,C]2 [C,G,]2 | %6
 [D,G,]2 [D,B,]2 [D,A,]2 [D,C]2 | [G,,G,B,]6 || [G,B,]2 | ([G,D]>[G,D][G,D]>[G,D] [G,D]3/2) z/ z2 | %10
 ([G,,G,]>[G,,G,][G,,G,]>[G,,G,] [G,,G,]2) [G,B,]2 | ([D,C]>[D,C][D,C]>[D,C] [D,C]) z z2 | %12
 ([G,D]>[G,D][G,D]>[G,D] [G,D]) z [G,B,]2 | ([G,D]>[G,D][G,D]>[G,D] [G,D]) z z2 | %14
 ([G,,G,]>[G,,G,][G,,G,]>[G,,G,] [G,,G,]2) [G,B,][G,D] | [D,C]2 [D,C]2 [D,B,]2 (A,C) | %16
 [G,,G,B,]6 z2 |] %17
V:4
 D,2 B,,2 G,2 D,2 | x8 | x8 | x8 | D,2 B,,2 G,2 D,2 | x8 | x8 | x6 || x2 | x8 | x8 | x8 | x8 | x8 | %14
 x8 | x6 D,2 | x8 |] %17

